RestoDelMundo/Polonia/Otras Categorias/Gks Tychy.svg

<svg xmlns="http://www.w3.org/2000/svg" viewBox="0 0 612 792"><path fill="#baa871" d="M530.838 113.39H84.162l223.337 566z"/><path d="M348.684 313.043h-82.37l41.185 309.975z"/><path fill="#c72127" d="m316.12 621.574 121.742-308.531h-80.75z"/><path fill="#1b8f45" d="m177.136 313.043 121.743 308.531-40.993-308.531z"/><path fill="#fff" d="m153.389 252.861 20.439 51.8H441.17l20.44-51.8zM511.435 126.591H103.563l46.518 117.887h314.836z"/><path fill="#baa871" d="m255.606 283.957-15.09-23.838h14.728l7.18 12.534 7.179-12.534h14.728l-15.092 23.839v13.103h-13.633zM387.394 283.957l-15.09-23.838h14.728l7.178 12.534 7.179-12.534h14.728l-15.09 23.839v13.103h-13.633zM368.766 260.119v36.942h-13.632v-14.13H342.94v14.13h-13.63v-36.942h13.63v12.709h12.194v-12.709zM224.503 270.222v26.839h-13.632v-26.839h-11.99v-10.103h37.612v10.103zM303.833 298.528c-9.871 0-18.163-5.694-20.221-13.271-.95-3.508-.933-10.099.157-13.55 2.311-7.297 10.437-12.713 20.064-12.713 5.496 0 11.278 1.655 15.204 5.186 2.855 2.57 4.612 6.253 5.143 10.433h-13.12l-.044-.203c-.763-3.334-3.409-5.833-6.923-5.833-3.452 0-6.366 2.408-7.194 5.651-.549 2.153-.537 6.549-.057 8.742.737 3.369 3.711 5.9 7.251 5.9 3.386 0 5.94-2.319 6.829-5.473q.09-.323.161-.71h13.103c-.569 4.707-2.696 8.67-6.06 11.353-3.811 3.039-9.144 4.488-14.293 4.488"/><path d="m213.875 210.705-.8-4.348c-1.876 1.941-4.12 3.377-6.76 4.325-2.627.946-5.696 1.426-9.196 1.426-7.368 0-13.172-2.374-17.424-7.107-4.239-4.734-6.365-11.221-6.365-19.473 0-8.415 2.364-14.949 7.105-19.6 4.729-4.641 11.369-6.966 19.908-6.966 6.712 0 12.135 1.637 16.242 4.897 4.12 3.262 6.568 7.867 7.333 13.803h-15.705c-.633-2.01-1.648-3.541-3.057-4.593-1.422-1.051-3.165-1.577-5.243-1.577-3.308 0-5.793 1.238-7.429 3.728-1.648 2.489-2.472 6.206-2.472 11.139 0 4.559.823 7.971 2.484 10.239 1.659 2.255 4.18 3.389 7.56 3.389 2.425 0 4.49-.549 6.174-1.66 1.696-1.11 2.735-2.595 3.141-4.465h-7.463v-10.788h22.643v27.631zM282.637 210.772v-50.475h16.324v16.728l14.757-16.728h19.114l-18.309 18.611 20.672 31.864h-19.627l-12.532-20.213-4.075 4.141v16.072zM393.612 194.993h15.698c.432 1.824 1.212 3.147 2.353 3.941 1.142.808 2.829 1.206 5.075 1.206 1.888 0 3.367-.328 4.448-.983 1.085-.643 1.62-1.544 1.62-2.689q0-2.738-6.778-4.457c-.907-.222-1.606-.397-2.082-.515-3.705-.959-6.661-1.825-8.85-2.62-2.202-.784-3.799-1.521-4.8-2.212-1.932-1.392-3.377-3.064-4.342-5.007-.967-1.941-1.456-4.152-1.456-6.644q0-7.51 5.624-11.791c3.762-2.854 8.92-4.281 15.487-4.281 6.463 0 11.551 1.369 15.254 4.094 3.704 2.737 5.8 6.645 6.275 11.744h-15.31c-.244-1.486-.91-2.597-1.958-3.321-1.058-.737-2.571-1.1-4.528-1.1-1.724 0-3.006.279-3.857.854-.837.573-1.255 1.439-1.255 2.609 0 1.661 2.199 3.064 6.613 4.175.396.118.687.2.885.246.642.152 1.606.398 2.898.713 5.848 1.486 9.666 2.831 11.458 4.048 2.235 1.485 3.855 3.169 4.88 5.077 1.024 1.895 1.536 4.129 1.536 6.715 0 5.568-1.932 9.85-5.811 12.844q-5.814 4.492-16.663 4.492c-6.671 0-11.946-1.497-15.849-4.492-3.897-2.995-6.086-7.207-6.565-12.646"/><path fill="#baa871" d="M198.94 138.855c-25.71 0-46.68 20.969-46.68 46.68s20.97 46.681 46.68 46.681 46.681-20.969 46.681-46.681-20.97-46.68-46.681-46.68m0 84.977c-21.093 0-38.297-17.204-38.297-38.297s17.204-38.297 38.297-38.297 38.297 17.204 38.297 38.297-17.204 38.297-38.297 38.297M307.988 138.855c-25.711 0-46.681 20.969-46.681 46.68s20.97 46.681 46.681 46.681c25.712 0 46.681-20.969 46.681-46.681s-20.969-46.68-46.681-46.68m0 84.977c-21.094 0-38.297-17.204-38.297-38.297s17.203-38.297 38.297-38.297c21.095 0 38.298 17.204 38.298 38.297s-17.203 38.297-38.298 38.297M416.058 138.855c-25.711 0-46.679 20.969-46.679 46.68s20.968 46.681 46.679 46.681c25.71 0 46.681-20.969 46.681-46.681-.001-25.711-20.971-46.68-46.681-46.68m0 84.977c-21.093 0-38.297-17.204-38.297-38.297s17.204-38.297 38.297-38.297 38.299 17.204 38.299 38.297c-.001 21.093-17.207 38.297-38.299 38.297"/></svg>

<svg enable-background="new 0 0 612 792" viewBox="0 0 612 792" xmlns="http://www.w3.org/2000/svg"><path d="M 530.838 113.39 L 84.162 113.39 L 307.499 679.39 L 530.838 113.39 Z" fill="#baa871"/><path d="M 348.684 313.043 L 266.314 313.043 L 307.499 623.018 L 348.684 313.043 Z"/><path d="M 316.12 621.574 L 437.862 313.043 L 357.112 313.043 L 316.12 621.574 Z" fill="#c72127"/><path d="M 177.136 313.043 L 298.879 621.574 L 257.886 313.043 L 177.136 313.043 Z" fill="#1b8f45"/><path d="M 153.389 252.861 L 173.828 304.661 L 441.17 304.661 L 461.61 252.861 L 153.389 252.861 Z" fill="#fff"/><path d="M 511.435 126.591 L 103.563 126.591 L 150.081 244.478 L 464.917 244.478 L 511.435 126.591 Z" fill="#fff"/><path d="M 255.606 283.957 L 240.516 260.119 L 255.244 260.119 L 262.424 272.653 L 269.603 260.119 L 284.331 260.119 L 269.239 283.958 L 269.239 297.061 L 255.606 297.061 L 255.606 283.957 Z" fill="#baa871"/><path d="M 387.394 283.957 L 372.304 260.119 L 387.032 260.119 L 394.21 272.653 L 401.389 260.119 L 416.117 260.119 L 401.027 283.958 L 401.027 297.061 L 387.394 297.061 L 387.394 283.957 Z" fill="#baa871"/><path d="M 368.766 260.119 L 368.766 297.061 L 355.134 297.061 L 355.134 282.931 L 342.94 282.931 L 342.94 297.061 L 329.31 297.061 L 329.31 260.119 L 342.94 260.119 L 342.94 272.828 L 355.134 272.828 L 355.134 260.119 L 368.766 260.119 Z" fill="#baa871"/><path d="M 224.503 270.222 L 224.503 297.061 L 210.871 297.061 L 210.871 270.222 L 198.881 270.222 L 198.881 260.119 L 236.493 260.119 L 236.493 270.222 L 224.503 270.222 Z" fill="#baa871"/><path d="M 303.833 298.528 c -9.871 0 -18.163 -5.694 -20.221 -13.271 c -.95 -3.508 -.933 -10.099 .157 -13.55 c 2.311 -7.297 10.437 -12.713 20.064 -12.713 c 5.496 0 11.278 1.655 15.204 5.186 c 2.855 2.57 4.612 6.253 5.143 10.433 H 311.06 c -.016 -.069 -.031 -.138 -.044 -.203 c -.763 -3.334 -3.409 -5.833 -6.923 -5.833 c -3.452 0 -6.366 2.408 -7.194 5.651 c -.549 2.153 -.537 6.549 -.057 8.742 c .737 3.369 3.711 5.9 7.251 5.9 c 3.386 0 5.94 -2.319 6.829 -5.473 c .06 -.214 .114 -.453 .161 -.71 h 13.103 c -.569 4.707 -2.696 8.67 -6.06 11.353 C 314.315 297.079 308.982 298.528 303.833 298.528 L 303.833 298.528 z" fill="#baa871"/><path d="M 213.875 210.705 l -.8 -4.348 c -1.876 1.941 -4.12 3.377 -6.76 4.325 c -2.627 .946 -5.696 1.426 -9.196 1.426 c -7.368 0 -13.172 -2.374 -17.424 -7.107 c -4.239 -4.734 -6.365 -11.221 -6.365 -19.473 c 0 -8.415 2.364 -14.949 7.105 -19.6 c 4.729 -4.641 11.369 -6.966 19.908 -6.966 c 6.712 0 12.135 1.637 16.242 4.897 c 4.12 3.262 6.568 7.867 7.333 13.803 h -15.705 c -.633 -2.01 -1.648 -3.541 -3.057 -4.593 c -1.422 -1.051 -3.165 -1.577 -5.243 -1.577 c -3.308 0 -5.793 1.238 -7.429 3.728 c -1.648 2.489 -2.472 6.206 -2.472 11.139 c 0 4.559 .823 7.971 2.484 10.239 c 1.659 2.255 4.18 3.389 7.56 3.389 c 2.425 0 4.49 -.549 6.174 -1.66 c 1.696 -1.11 2.735 -2.595 3.141 -4.465 h -7.463 v -10.788 h 22.643 v 27.631 H 213.875 L 213.875 210.705 z"/><path d="M 282.637 210.772 L 282.637 160.297 L 298.961 160.297 L 298.961 177.025 L 313.718 160.297 L 332.832 160.297 L 314.523 178.908 L 335.195 210.772 L 315.568 210.772 L 303.036 190.559 L 298.961 194.7 L 298.961 210.772 L 282.637 210.772 Z"/><path d="M 393.612 194.993 h 15.698 c .432 1.824 1.212 3.147 2.353 3.941 c 1.142 .808 2.829 1.206 5.075 1.206 c 1.888 0 3.367 -.328 4.448 -.983 c 1.085 -.643 1.62 -1.544 1.62 -2.689 c 0 -1.825 -2.259 -3.311 -6.778 -4.457 c -.907 -.222 -1.606 -.397 -2.082 -.515 c -3.705 -.959 -6.661 -1.825 -8.85 -2.62 c -2.202 -.784 -3.799 -1.521 -4.8 -2.212 c -1.932 -1.392 -3.377 -3.064 -4.342 -5.007 c -.967 -1.941 -1.456 -4.152 -1.456 -6.644 c 0 -5.006 1.875 -8.937 5.624 -11.791 c 3.762 -2.854 8.92 -4.281 15.487 -4.281 c 6.463 0 11.551 1.369 15.254 4.094 c 3.704 2.737 5.8 6.645 6.275 11.744 h -15.31 c -.244 -1.486 -.91 -2.597 -1.958 -3.321 c -1.058 -.737 -2.571 -1.1 -4.528 -1.1 c -1.724 0 -3.006 .279 -3.857 .854 c -.837 .573 -1.255 1.439 -1.255 2.609 c 0 1.661 2.199 3.064 6.613 4.175 c .396 .118 .687 .2 .885 .246 c .642 .152 1.606 .398 2.898 .713 c 5.848 1.486 9.666 2.831 11.458 4.048 c 2.235 1.485 3.855 3.169 4.88 5.077 c 1.024 1.895 1.536 4.129 1.536 6.715 c 0 5.568 -1.932 9.85 -5.811 12.844 c -3.876 2.995 -9.43 4.492 -16.663 4.492 c -6.671 0 -11.946 -1.497 -15.849 -4.492 C 396.28 204.644 394.091 200.432 393.612 194.993 L 393.612 194.993 z"/><path d="M 198.94 138.855 c -25.71 0 -46.68 20.969 -46.68 46.68 c 0 25.711 20.97 46.681 46.68 46.681 c 25.711 0 46.681 -20.969 46.681 -46.681 C 245.621 159.824 224.651 138.855 198.94 138.855 z M 198.94 223.832 c -21.093 0 -38.297 -17.204 -38.297 -38.297 c 0 -21.093 17.204 -38.297 38.297 -38.297 c 21.093 0 38.297 17.204 38.297 38.297 C 237.237 206.628 220.033 223.832 198.94 223.832 z" fill="#baa871"/><path d="M 307.988 138.855 c -25.711 0 -46.681 20.969 -46.681 46.68 c 0 25.711 20.97 46.681 46.681 46.681 c 25.712 0 46.681 -20.969 46.681 -46.681 C 354.669 159.824 333.7 138.855 307.988 138.855 z M 307.988 223.832 c -21.094 0 -38.297 -17.204 -38.297 -38.297 c 0 -21.093 17.203 -38.297 38.297 -38.297 c 21.095 0 38.298 17.204 38.298 38.297 C 346.286 206.628 329.083 223.832 307.988 223.832 z" fill="#baa871"/><path d="M 416.058 138.855 c -25.711 0 -46.679 20.969 -46.679 46.68 c 0 25.711 20.968 46.681 46.679 46.681 c 25.71 0 46.681 -20.969 46.681 -46.681 C 462.738 159.824 441.768 138.855 416.058 138.855 z M 416.058 223.832 c -21.093 0 -38.297 -17.204 -38.297 -38.297 c 0 -21.093 17.204 -38.297 38.297 -38.297 s 38.299 17.204 38.299 38.297 C 454.356 206.628 437.15 223.832 416.058 223.832 z" fill="#baa871"/></svg>
